public/icons/golang-icon.svg

<svg width="129" height="128" viewBox="0 0 129 128" fill="none" xmlns="http://www.w3.org/2000/svg">
<g clip-path="url(#clip0_67_57)">
<path d="M98.7334 0H30.7334C14.1649 0 0.733398 13.4315 0.733398 30V98C0.733398 114.569 14.1649 128 30.7334 128H98.7334C115.302 128 128.733 114.569 128.733 98V30C128.733 13.4315 115.302 0 98.7334 0Z" fill="#00B4E0"/>
<path d="M20.9834 56.617C20.7834 56.617 20.7334 56.517 20.8334 56.367L21.8834 55.017C21.9834 54.867 22.2334 54.767 22.4334 54.767H40.2834C40.4834 54.767 40.5334 54.917 40.4334 55.067L39.5834 56.367C39.4834 56.517 39.2334 56.667 39.0834 56.667L20.9834 56.617ZM13.4334 61.217C13.2334 61.217 13.1834 61.117 13.2834 60.967L14.3334 59.617C14.4334 59.467 14.6834 59.367 14.8834 59.367H37.6834C37.8834 59.367 37.9834 59.517 37.9334 59.667L37.5334 60.867C37.4834 61.067 37.2834 61.167 37.0834 61.167L13.4334 61.217ZM25.5334 65.817C25.3334 65.817 25.2834 65.667 25.3834 65.517L26.0834 64.267C26.1834 64.117 26.3834 63.967 26.5834 63.967H36.5834C36.7834 63.967 36.8834 64.117 36.8834 64.317L36.7834 65.517C36.7834 65.717 36.5834 65.867 36.4334 65.867L25.5334 65.817ZM77.4334 55.717C74.2834 56.517 72.1334 57.117 69.0334 57.917C68.2834 58.117 68.2334 58.167 67.5834 57.417C66.8334 56.567 66.2834 56.017 65.2334 55.517C62.0834 53.967 59.0334 54.417 56.1834 56.267C52.7834 58.467 51.0334 61.717 51.0834 65.767C51.1334 69.767 53.8834 73.067 57.8334 73.617C61.2334 74.067 64.0834 72.867 66.3334 70.317C66.7834 69.767 67.1834 69.167 67.6834 68.467H58.0334C56.9834 68.467 56.7334 67.817 57.0834 66.967C57.7334 65.417 58.9334 62.817 59.6334 61.517C59.7834 61.217 60.1334 60.717 60.8834 60.717H79.0834C78.9834 62.067 78.9834 63.417 78.7834 64.767C78.2334 68.367 76.8834 71.667 74.6834 74.567C71.0834 79.317 66.3834 82.267 60.4334 83.067C55.5334 83.717 50.9834 82.767 46.9834 79.767C43.2834 76.967 41.1834 73.267 40.6334 68.667C39.9834 63.217 41.5834 58.317 44.8834 54.017C48.4334 49.367 53.1334 46.417 58.8834 45.367C63.5834 44.517 68.0834 45.067 72.1334 47.817C74.7834 49.567 76.6834 51.967 77.9334 54.867C78.2334 55.317 78.0334 55.567 77.4334 55.717Z" fill="white"/>
<path d="M93.9836 83.3671C89.4336 83.2671 85.2836 81.9671 81.7836 78.9671C78.8336 76.4171 76.9836 73.1671 76.3836 69.3171C75.4836 63.6671 77.0336 58.6671 80.4336 54.2171C84.0836 49.4171 88.4836 46.9171 94.4336 45.8671C99.5336 44.9671 104.334 45.4671 108.684 48.4171C112.634 51.1171 115.084 54.7671 115.734 59.5671C116.584 66.3171 114.634 71.8171 109.984 76.5171C106.684 79.8671 102.634 81.9671 97.9836 82.9171C96.6336 83.1671 95.2836 83.2171 93.9836 83.3671ZM105.884 63.1671C105.834 62.5171 105.834 62.0171 105.734 61.5171C104.834 56.5671 100.284 53.7671 95.5336 54.8671C90.8836 55.9171 87.8836 58.8671 86.7836 63.5671C85.8836 67.4671 87.7836 71.4171 91.3836 73.0171C94.1336 74.2171 96.8836 74.0671 99.5336 72.7171C103.484 70.6671 105.634 67.4671 105.884 63.1671Z" fill="white"/>
</g>
<defs>
<clipPath id="clip0_67_57">
<rect width="128" height="128" fill="white" transform="translate(0.733398)"/>
</clipPath>
</defs>
</svg>

<svg xmlns="http://www.w3.org/2000/svg" width="129" height="128" fill="none"><g clip-path="url(#a)"><path fill="#00B4E0" d="M98.733 0h-68c-16.568 0-30 13.431-30 30v68c0 16.569 13.432 30 30 30h68c16.569 0 30-13.431 30-30V30c0-16.569-13.431-30-30-30Z"/><path fill="#fff" d="M20.983 56.617c-.2 0-.25-.1-.15-.25l1.05-1.35c.1-.15.35-.25.55-.25h17.85c.2 0 .25.15.15.3l-.85 1.3c-.1.15-.35.3-.5.3l-18.1-.05Zm-7.55 4.6c-.2 0-.25-.1-.15-.25l1.05-1.35c.1-.15.35-.25.55-.25h22.8c.2 0 .3.15.25.3l-.4 1.2c-.05.2-.25.3-.45.3l-23.65.05Zm12.1 4.6c-.2 0-.25-.15-.15-.3l.7-1.25c.1-.15.3-.3.5-.3h10c.2 0 .3.15.3.35l-.1 1.2c0 .2-.2.35-.35.35l-10.9-.05Zm51.9-10.1c-3.15.8-5.3 1.4-8.4 2.2-.75.2-.8.25-1.45-.5-.75-.85-1.3-1.4-2.35-1.9-3.15-1.55-6.2-1.1-9.05.75-3.4 2.2-5.15 5.45-5.1 9.5.05 4 2.8 7.3 6.75 7.85 3.4.45 6.25-.75 8.5-3.3.45-.55.85-1.15 1.35-1.85h-9.65c-1.05 0-1.3-.65-.95-1.5.65-1.55 1.85-4.15 2.55-5.45.15-.3.5-.8 1.25-.8h18.2c-.1 1.35-.1 2.7-.3 4.05-.55 3.6-1.9 6.9-4.1 9.8-3.6 4.75-8.3 7.7-14.25 8.5-4.9.65-9.45-.3-13.45-3.3-3.7-2.8-5.8-6.5-6.35-11.1-.65-5.45.95-10.35 4.25-14.65 3.55-4.65 8.25-7.6 14-8.65 4.7-.85 9.2-.3 13.25 2.45 2.65 1.75 4.55 4.15 5.8 7.05.3.45.1.7-.5.85Z"/><path fill="#fff" d="M93.984 83.367c-4.55-.1-8.7-1.4-12.2-4.4-2.95-2.55-4.8-5.8-5.4-9.65-.9-5.65.65-10.65 4.05-15.1 3.65-4.8 8.05-7.3 14-8.35 5.1-.9 9.9-.4 14.25 2.55 3.95 2.7 6.4 6.35 7.05 11.15.85 6.75-1.1 12.25-5.75 16.95-3.3 3.35-7.35 5.45-12 6.4-1.35.25-2.7.3-4 .45Zm11.9-20.2c-.05-.65-.05-1.15-.15-1.65-.9-4.95-5.45-7.75-10.2-6.65-4.65 1.05-7.65 4-8.75 8.7-.9 3.9 1 7.85 4.6 9.45 2.75 1.2 5.5 1.05 8.15-.3 3.95-2.05 6.1-5.25 6.35-9.55Z"/></g><defs><clipPath id="a"><path fill="#fff" d="M.733 0h128v128h-128z"/></clipPath></defs></svg>
